src/icons/download.svg

<svg xmlns="http://www.w3.org/2000/svg"  viewBox="0 0 50 50" width="32px" height="32px"><path d="M 2 25 C 2 37.683594 12.316406 48 25 48 C 37.683594 48 48 37.683594 48 25 C 48 12.316406 37.683594 2 25 2 C 12.316406 2 2 12.316406 2 25 Z M 26 12 L 26 30 L 32 30 L 25 37 L 18 30 L 24 30 L 24 12 Z"/></svg>

<svg role="img" viewBox="0 0 50 50" xmlns="http://www.w3.org/2000/svg"><path d="M2 25c0 12.684 10.316 23 23 23s23-10.316 23-23S37.684 2 25 2 2 12.316 2 25m24-13v18h6l-7 7-7-7h6V12Z"/></svg>
